!!!COM: Schoenberg [Schönberg], Arnold (Franz Walter)
!!!OTL: Moses und Aron (Moses and Aaron), Opera
!!!OMV: Act II, Scene 3: Diese Bild bezeugt dass in allem was ist… (This Image Is Witness That In All That Is...)
!!!example: 219
!!!work: Sch-33
**kern	**kern	**dynam
*part1	*part1	*part1
*staff2	*staff1	*
*I"Piano	*	*
*I'Pno.	*	*
*clefF4	*clefG2	*
*k[]	*k[]	*
*C:	*C:	*
*M3/4	*M3/4	*
*MM121	*MM121	*
=302	=302	=302
8CC#X`L	[2.A [2.d#X 2.g#X	.
8DDn`J	.	.
8DDn`	.	.
[4.CCn	.	.
=303	=303	=303
4.CC]	(8AL] 8d#] 8f#X	.
.	8en'J)	.
.	2Gn^ 2B-X 2fn	.
4.BBBn	.	.
=304	=304	=304
*	*^	*
4r	8g#X'L	4.A 4.c	.
.	[8g#^J	.	.
8DDn'`L	2g#_	.	.
8EE-X'`J	.	[4.A^ [4.c	.
8EE-'`L	.	.	.
[8DD-XJ	.	.	.
=305	=305	=305	=305
2.DD-_	8g#]	4.A] 4.c]	.
.	4.gn	.	.
.	.	[4.A^ [4.c	.
.	[4fn	.	.
=306	=306	=306	=306
8DD-]	8fL]	8A] 8c]	.
8r	[8B-X^J [8e [8f#X	8ryy	.
8r	2B-] 2e] 2f#]	4ryy	>
4.CC-X	.	.	.
.	.	4ryy	.
=307	=307	=307	=307
8r	4.bn	8r	]
(8FFn	.	4.B-X^ 4.g	.
8EEn'L)	.	.	.
8EE'J	4b	.	.
([4FF#X	.	8B-' 8g	.
.	[8ccn	8r	.
=308	=308	=308	=308
2FF#]	8ccL]	8e-X' 8an	.
.	8ddnJ	8r	.
.	2cc#X	8r	.
.	.	4e- 4a	.
4GG#X)	.	.	.
.	.	8e-' 8a	.
=309	=309	=309	=309
4r	8r	8e-X' 8a	.
.	4bn	8r	.
8FF#X'L	.	4.B-X 4.en	.
8FFn'J	8cc#X'	.	.
8FF'L	(8.cc#L	.	.
[8GGn'J	.	[8cn [8an	.
.	16dd#XJk)	.	.
=310	=310	=310	=310
2GG_	(4dd#X	8c] 8an]	.
.	.	4.c 4.a	.
.	[2ddn	.	.
8GGL]	.	[4c [4a	.
[8GG#XJ	.	.	.
=311	=311	=311	=311
4.GG#]	8dd])	8c] 8a]	.
.	8r	8r	.
.	4r	4r	.
4GG#X	.	.	.
.	4r	4r	.
8GG#	.	.	.
*	*v	*v	*
=	=	=
*-	*-	*-
!!!system-decoration: {(s1,s2)}
!!!CDT: 1874/09/13-1951/07/13
!!!CBL: Vienna, Austria
!!!CDL: Los Angeles, United States
!!!CNT: Austrian
!!!AGN: Stage; Opera
!!!MCN: Rosbaud, Hans
!!!MDT: 1957/06/06
!!!MGN: unknown
!!!MLC: Zürich, Switzerland
!!!MPD: 1957
!!!MPN: Fiedler, Hans; Melchert, Helmut
!!!ODT: 1932
!!!PDT: 1957
!!!excerpt-start-measure: 302
!!!excerpt-end-measure: 311
!!!excerpt-start-time: 13:15
!!!excerpt-end-time: 13:34
!!!EEV: 2020/01/25
!!!ONB: Converted from MusicXML on 2020/01/25
